X: 33793
T: Ray's Classic
R: polka
M: 2/4
K: Amajor
M:4/4
dcB|:A4E2A2|F2A2 E3A|F2B2B3A|F2B2 BdcB|
A4 E2A2|F2A2 E3A|F2B2 AGFE|A2A2 [1AdcB:|2 ABcd||
|:e3e e2A2|f2f2 f2f2|B2f2f2B2|g2g2 g2gc|
c2g2g2c2|a2a2 a2 gf|e2E2 EdcB|A2A2 ABcd:|

